src/img/icons/100 beneficios depois 1_branco.svg

<svg width="54" height="54" viewBox="0 0 54 54" fill="none" xmlns="http://www.w3.org/2000/svg">
<path fill-rule="evenodd" clip-rule="evenodd" d="M1.0699 16.2244C1.0699 15.4639 1.21357 13.4137 3.89987 13.4137L47.0081 13.3978V8.59606C47.0081 6.89426 45.6114 5.51462 43.8881 5.51462H8.92618C7.25146 5.51462 6.60387 6.09115 6.58404 7.74476C6.56554 9.26656 5.29959 10.4871 3.75862 10.4691C2.21792 10.4509 0.98171 9.20065 1.0002 7.67885C1.05676 3.00547 4.19338 0 8.92618 0H43.8881C48.6955 0 52.5925 3.84856 52.5925 8.59606V16.1542C52.5925 16.2611 52.5863 16.3662 52.5743 16.47L52.7965 36.9476C52.8131 38.4694 51.5756 39.7181 50.0346 39.7345C48.4936 39.7509 47.2293 38.5285 47.2127 37.0069L47.017 18.9659L6.654 18.9807V45.3616C6.654 47.0634 8.05103 48.443 9.77427 48.443H43.9908C45.6653 48.443 47.0285 47.1126 47.0486 45.459C47.0668 43.9372 48.3328 42.7166 49.8738 42.7346C51.4147 42.7529 52.6507 44.0031 52.6322 45.5249C52.5759 50.1983 48.7233 53.9576 43.9908 53.9576H9.77427C4.96695 53.9576 1.0699 50.1091 1.0699 45.3616V16.2244ZM27.5521 26.0674C30.4577 23.8021 34.4319 24.2635 36.6285 26.1161C39.1942 28.2804 39.6745 32.5938 37.1231 36.9188C36.0238 38.8866 33.7599 40.9005 31.343 42.53C29.059 44.0786 26.0452 44.0786 23.7657 42.5332C21.3451 40.901 19.082 38.8882 17.9879 36.9304C15.4291 32.5996 15.9081 28.2817 18.4754 26.1161C20.672 24.2635 24.6465 23.8021 27.5521 26.0674ZM25.6243 30.5161C24.5541 28.7105 22.447 28.5681 21.377 29.4708C20.899 29.8739 20.7299 30.5055 20.7299 31.2107C20.7299 32.2819 21.1282 33.4953 21.8538 34.7196C21.8651 34.7384 21.8758 34.7572 21.8862 34.7765C22.7 36.2472 24.4747 37.6692 26.2848 38.8898L26.2894 38.8927C27.0501 39.4086 28.0539 39.4086 28.8148 38.8927L28.8194 38.8895C30.6295 37.6692 32.4042 36.2472 33.2177 34.7763C33.2284 34.7572 33.2391 34.7384 33.2504 34.7196C33.976 33.4953 34.3743 32.2819 34.3743 31.2107C34.3743 30.5055 34.2052 29.8739 33.7272 29.4708C32.6569 28.5681 30.5499 28.7105 29.4799 30.5161C29.0791 31.1921 28.3452 31.6075 27.5521 31.6075C26.759 31.6075 26.0251 31.1921 25.6243 30.5161Z" fill="#FEFEFF"/>
</svg>

<svg xmlns="http://www.w3.org/2000/svg" width="54" height="54" fill="none" viewBox="0 0 54 54"><path fill="#fefeff" fill-rule="evenodd" d="M1.07 16.224c0-.76.144-2.81 2.83-2.81l43.108-.016V8.596c0-1.702-1.397-3.081-3.12-3.081H8.926c-1.675 0-2.322.576-2.342 2.23-.018 1.522-1.284 2.742-2.825 2.724S.982 9.201 1 7.68C1.057 3.005 4.193 0 8.926 0h34.962c4.808 0 8.705 3.849 8.705 8.596v7.558q0 .16-.019.316l.223 20.478c.016 1.521-1.221 2.77-2.762 2.786s-2.806-1.206-2.822-2.727l-.196-18.041-40.363.015v26.38c0 1.702 1.397 3.082 3.12 3.082h34.217c1.674 0 3.038-1.33 3.058-2.984.018-1.522 1.284-2.742 2.825-2.724 1.54.018 2.777 1.268 2.758 2.79-.056 4.673-3.909 8.433-8.641 8.433H9.774c-4.807 0-8.704-3.849-8.704-8.596zm26.482 9.843c2.906-2.265 6.88-1.803 9.077.05 2.565 2.163 3.046 6.477.494 10.802-1.1 1.968-3.363 3.982-5.78 5.611a6.77 6.77 0 0 1-7.577.003c-2.42-1.632-4.684-3.645-5.778-5.603-2.559-4.33-2.08-8.648.487-10.814 2.197-1.852 6.171-2.314 9.077-.049m-1.928 4.45c-1.07-1.806-3.177-1.949-4.247-1.046-.478.403-.647 1.035-.647 1.74 0 1.07.398 2.284 1.124 3.509l.032.056c.814 1.471 2.589 2.893 4.399 4.114l.004.003a2.25 2.25 0 0 0 2.526 0l.004-.004c1.81-1.22 3.585-2.642 4.399-4.113l.032-.056c.726-1.225 1.124-2.438 1.124-3.51 0-.704-.169-1.336-.647-1.74-1.07-.902-3.177-.76-4.247 1.046a2.24 2.24 0 0 1-1.928 1.092 2.24 2.24 0 0 1-1.928-1.092" clip-rule="evenodd"/></svg>
